X: 3
T: The New Broom
C: Vincent Broderick
M: 4/4
L: 1/8
R: barndance
K: G Major
|: (3DEF |
G>D (3GAB d2 (3Bcd | (3ege d>B d>gB>A | G>D (3FGA B>GA>G | A>BE>D (3EGE (3DEF |
G>DG>B d>GB>d | e>Gd>B d>GB>d | g>f (3gfe d>BA>d | B>G (3GGG G2 :|
|: (3Bdg |
b>^ab>=a (3gbg (3fga | b>g (3agf (3ege d>G | e>Gg>G d>GG>A |
[1 B>AA>^G (3ABA (3Bd=g | b2 b>a g>fg>a | b2 a>g e>g (3def | g>e (3gfe d>BA>d | B>G (3GGG G2 :|
2 B>A (3AAA A2 (3cBA | G>DG>B (3dgd (3Bcd | (3ege d>^c d2 e>f | g>f (3gfe d>BA>d | B>GG>F G2 ||
